X: 31993
T: Peekaboo Loop
R: slip jig
M: 9/8
K: Dmajor
c2 e eBd cBA|1 c2 A cBA F2:|2 g2 e cAc d2||
g2 e eB/c/d cBA|1 c2 A cBA F2:|2 g2 e cA/B/c d2||

